images/Jraft-Logomark-White.svg

<svg height="181" viewBox="0 0 192 181" width="192" xmlns="http://www.w3.org/2000/svg"><g fill="none" stroke="#fff" stroke-linejoin="round" stroke-width="3" transform="translate(2.56 2.68)"><path d="m118.623081 176.111138c44.290296 0 67.927327-27.494506 67.927327-59.816742v-94.8754738h-31.349623v92.6688498c0 20.488411-10.922444 35.560346-36.577704 35.560346-20.2882357 0-35.6851604-9.21743-39.0951846-28.019668h-29.5504114c1.0997798 37.131124 34.3404598 54.482688 68.645596 54.482688z"/><path d="m78.150371 176.111138c50.422798 0 77.332649-31.301438 77.332649-68.09906v-108.012078h-35.69034v105.499921c0 23.325269-12.434783 40.484087-41.642309 40.484087-23.0973763 0-40.6261828-10.49369-44.5083643-31.899314h-33.6420067c1.25205702 42.272356 39.0952927 62.026444 78.150371 62.026444z"/></g></svg>

<?xml version="1.0" encoding="UTF-8"?>
<svg width="192px" height="181px" viewBox="0 0 192 181" version="1.1" xmlns="http://www.w3.org/2000/svg" xmlns:xlink="http://www.w3.org/1999/xlink">
    <title>Group</title>
    <g id="🏗-Landing-Page" stroke="none" stroke-width="1" fill="none" fill-rule="evenodd" stroke-linejoin="round">
        <g id="Logo/Big" transform="translate(-32.000000, -37.000000)" fill-rule="nonzero" stroke="#FFFFFF" stroke-width="3">
            <g id="Group" transform="translate(34.560000, 39.680000)">
                <path d="M118.623081,176.111138 C162.913377,176.111138 186.550408,148.616632 186.550408,116.294396 L186.550408,21.4189222 L155.200785,21.4189222 L155.200785,114.087772 C155.200785,134.576183 144.278341,149.648118 118.623081,149.648118 C98.3348453,149.648118 82.9379206,140.430688 79.5278964,121.62845 L49.977485,121.62845 C51.0772648,158.759574 84.3179448,176.111138 118.623081,176.111138 Z" id="Jraft"></path>
                <path d="M78.150371,176.111138 C128.573169,176.111138 155.48302,144.8097 155.48302,108.012078 L155.48302,-1.27897692e-13 L119.79268,-1.27897692e-13 L119.79268,105.499921 C119.79268,128.82519 107.357897,145.984008 78.150371,145.984008 C55.0529947,145.984008 37.5241882,135.490318 33.6420067,114.084694 L5.68434189e-14,114.084694 C1.25205702,156.35705 39.0952927,176.111138 78.150371,176.111138 Z" id="Jraft"></path>
            </g>
        </g>
    </g>
</svg>
